icons/battery-warning.svg

<svg width="24" height="24" viewBox="0 0 24 24" fill="none" xmlns="http://www.w3.org/2000/svg">
<path d="M6.375 7H6.25C3.90279 7 2 8.49238 2 10.3333V13.6667C2 15.5076 3.90279 17 6.25 17H6.375M14.625 7H14.75C17.0972 7 19 8.49238 19 10.3333V13.6667C19 15.5076 17.0972 17 14.75 17H14.625" stroke="black" stroke-width="2" stroke-linecap="round" stroke-linejoin="round"/>
<path d="M22 15L22 9" stroke="black" stroke-width="2" stroke-linecap="round" stroke-linejoin="round"/>
<path d="M10.5 12.75V6.75" stroke="black" stroke-width="2" stroke-linecap="round" stroke-linejoin="round"/>
<path d="M10.5 17.25V16.75" stroke="black" stroke-width="2" stroke-linecap="round" stroke-linejoin="round"/>
</svg>

<svg xmlns="http://www.w3.org/2000/svg" width="24" height="24" viewBox="0 0 24 24" fill="none" stroke="currentColor" stroke-width="2" stroke-linecap="round" stroke-linejoin="round">
<path d="M6.375 7H6.25C3.903 7 2 8.492 2 10.333v3.334C2 15.507 3.903 17 6.25 17h.125m8.25-10h.125C17.097 7 19 8.492 19 10.333v3.334C19 15.507 17.097 17 14.75 17h-.125M22 15V9m-11.5 3.75v-6m0 10.5v-.5"/>
</svg>
